X: 36149
T: Scotch Mary
R: reel
M: 4/4
K: Fmajor
|:EFGF EFGF|ECCA, B,2GF|EFGF EFGF|ECDE C2GF|
EFGF EFGF|ECCA, B,2GF|EFGA BAGF|1 ECDE C2GF:|2 ECDE CEGB||
|:c3A GGGF|(3EEF GA B2AB|cccA GGGF|ECDE C2GB|
c3A GGGF|(3EEF GA B2AB|cABG AGGF|1 ECDE CGAB:|2 ECDE C2 (3CCC||

